X:1
T:Rideau, 11.11.11.11
T:Rideau, 11.11.11.11
T:Herbert Sanders, 1917
T:Public Domain Courtesy of the Cyber Hymnal™
C:Herbert Sanders, 1917
Z:Public Domain
Z:Courtesy of the Cyber Hymnal™
%%score ( 1 2 ) ( 3 4 )
L:1/8
Q:1/4=115
M:4/4
K:Eb
V:1 treble 
V:2 treble 
V:3 bass 
V:4 bass 
V:1
 [EG]2 | [EG]4 [EF]2 [EG]2 | [EB]4 [EA]2 [EG]2 | [EG]4 [EF]2 [Ec]2 | [DB]6 [DF]2 | %5
 E4 [B,A]2 [EG]2 | (c2 B2) [FA]2 [EG]2 | [EG]2 z2 [Fc]2 x2 | B6 [FB]2 | B4 [GB]2 [_EG]2 | %10
 A4 [Fc]2 [Cc]2 | [Dc]4 [DB]2 [DA]2 | [FG]6 [FG]2 | e4 [Ge]2 [Fd]2 | ([Fd]2 [Ec]2) [GB]2 [FA]2 | %15
 G4 [CA]2 [DF]2 | E6 |] %17
V:2
 x2 | x8 | x8 | x8 | x8 | (_D2 C2) x4 | G4 x4 | x2 F4 C2 | (F2 A2 G2) x2 | (=E2 F2) x4 | %10
 (F2 G2) x4 | x8 | x8 | (E2 G2) x4 | x8 | (F2 E2) x4 | E6 |] %17
V:3
 [E,B,]2 | [E,B,]4 [E,A,]2 [E,B,]2 | [A,,D]4 [A,,C]2 [B,,B,]2 | [C,=A,]4 [C,A,]2 [F,,A,]2 | %4
 [B,,A,]6 [B,,A,]2 | [C,G,]4 [D,F,]2 [E,B,]2 | [=E,_D]4 [F,C]2 [G,=B,]2 | [A,C]4 [=A,E]2 [A,E]2 | %8
 D6 [A,D]2 | _D4 [=E,C]2 [C,C]2 | (B,2 A,2) [F,A,]2 [A,,F,]2 | [B,,A,]4 [B,,G,]2 [B,,F,]2 | %12
 [=B,,G,D]6 [B,,G,D]2 | [G,C]4 [G,=B,]2 [G,B,]2 | (=B,2 C2) [E,_D]2 [F,C]2 | %15
 (B,2 G,2) [B,,F,]2 [B,,A,]2 | [E,G,]6 |] %17
V:4
 x2 | x8 | x8 | x8 | x8 | x8 | x8 | x8 | (B,2 C2 B,2) x2 | (G,2 F,2) x4 | F,4 x4 | x8 | x8 | %13
 (C,2 E,2) x4 | A,4 x4 | B,,4 x4 | x6 |] %17

